src/actions/symbolic/bench-symbolic.svg

<svg width="16" height="16" version="1.1" viewBox="0 0 16 16" xmlns="http://www.w3.org/2000/svg">
 <path d="m3 2v2h-2v4h2v2h-2v1h2v4h1v-4h8v4h1v-4h2v-1h-2v-2h2v-4h-2v-2h-1v2h-8v-2zm-1 3h1v2h-1zm2 0h8v2h-8zm9 0h1v2h-1zm-9 3h8v2h-8z" fill="#363636"/>
</svg>

<svg xmlns="http://www.w3.org/2000/svg" width="16" height="16">
    <path fill="#050505" fill-opacity=".7" d="M3 2v2H1v4h2v2H1v1h2v4h1v-4h8v4h1v-4h2v-1h-2V8h2V4h-2V2h-1v2H4V2zM2 5h1v2H2zm2 0h8v2H4zm9 0h1v2h-1zM4 8h8v2H4z"/>
</svg>
